_icons/SVG/201-unown-i-shiny.svg

<svg xmlns="http://www.w3.org/2000/svg" width="32" height="32"><path fill="#FFF" d="M16 8.5a7.5 7.5 0 000 15v-15z"/><path fill="#F7F7F7" d="M23.5 16A7.5 7.5 0 0016 8.5v15a7.5 7.5 0 007.5-7.5z"/><path fill="#373F3F" d="M16 13.5a2.5 2.5 0 100 5v-5z"/><path fill="#2B3332" d="M18.5 16a2.5 2.5 0 00-2.5-2.5v5a2.5 2.5 0 002.5-2.5z"/><circle fill="#FFF" cx="15.5" cy="15.5" r="1"/><path fill="#373F3F" d="M14.5 1.5v5.13c-4.526.723-8 4.643-8 9.37s3.474 8.647 8 9.37v5.13A1.5 1.5 0 0016 32v-9.5c-3.584 0-6.5-2.916-6.5-6.5s2.916-6.5 6.5-6.5V0a1.5 1.5 0 00-1.5 1.5z"/><path fill="#2B3332" d="M25.5 16c0-4.727-3.474-8.647-8-9.37V1.5A1.5 1.5 0 0016 0v9.5c3.584 0 6.5 2.916 6.5 6.5s-2.916 6.5-6.5 6.5V32a1.5 1.5 0 001.5-1.5v-5.13c4.526-.723 8-4.643 8-9.37z"/><path fill="#FFF" d="M16 8.5a7.5 7.5 0 000 15v-15z"/><path fill="#F7F7F7" d="M23.5 16A7.5 7.5 0 0016 8.5v15a7.5 7.5 0 007.5-7.5z"/><path fill="#373F3F" d="M16 13.5a2.5 2.5 0 100 5v-5z"/><path fill="#2B3332" d="M18.5 16a2.5 2.5 0 00-2.5-2.5v5a2.5 2.5 0 002.5-2.5z"/><circle fill="#FFF" cx="15.5" cy="15.5" r="1"/><path fill="#3980A8" d="M14.5 1.5v5.13c-4.526.723-8 4.643-8 9.37s3.474 8.647 8 9.37v5.13A1.5 1.5 0 0016 32v-9.5c-3.584 0-6.5-2.916-6.5-6.5s2.916-6.5 6.5-6.5V0a1.5 1.5 0 00-1.5 1.5z"/><path fill="#377AA0" d="M25.5 16c0-4.727-3.474-8.647-8-9.37V1.5A1.5 1.5 0 0016 0v9.5c3.584 0 6.5 2.916 6.5 6.5s-2.916 6.5-6.5 6.5V32a1.5 1.5 0 001.5-1.5v-5.13c4.526-.723 8-4.643 8-9.37z"/></svg>

<?xml version="1.0" encoding="utf-8"?>
<!-- Generator: Adobe Illustrator 23.0.6, SVG Export Plug-In . SVG Version: 6.00 Build 0)  -->
<svg version="1.1" xmlns="http://www.w3.org/2000/svg" xmlns:xlink="http://www.w3.org/1999/xlink" x="0px" y="0px" width="32px"
	 height="32px" viewBox="0 0 32 32" enable-background="new 0 0 32 32" xml:space="preserve">
<g id="labels">
	<g>
	</g>
</g>
<g id="icons">
	<g>
		<path fill="#FFFFFF" d="M16,8.5c-4.142,0-7.5,3.358-7.5,7.5s3.358,7.5,7.5,7.5V8.5z"/>
		<path fill="#F7F7F7" d="M23.5,16c0-4.142-3.358-7.5-7.5-7.5v15C20.142,23.5,23.5,20.142,23.5,16z"/>
		<path fill="#373F3F" d="M16,13.5c-1.381,0-2.5,1.119-2.5,2.5c0,1.381,1.119,2.5,2.5,2.5V13.5z"/>
		<path fill="#2B3332" d="M18.5,16c0-1.381-1.119-2.5-2.5-2.5v5C17.381,18.5,18.5,17.381,18.5,16z"/>
		<circle fill="#FFFFFF" cx="15.5" cy="15.5" r="1"/>
		<path fill="#373F3F" d="M14.5,1.5v5.13c-4.526,0.723-8,4.643-8,9.37s3.474,8.647,8,9.37v5.13c0,0.829,0.672,1.5,1.5,1.5v-6.5V23
			v-0.5c-3.584,0-6.5-2.916-6.5-6.5s2.916-6.5,6.5-6.5V9V6.5V0C15.172,0,14.5,0.671,14.5,1.5z"/>
		<path fill="#2B3332" d="M25.5,16c0-4.727-3.474-8.647-8-9.37V1.5C17.5,0.671,16.828,0,16,0v6.5V9v0.5c3.584,0,6.5,2.916,6.5,6.5
			s-2.916,6.5-6.5,6.5V23v2.5V32c0.828,0,1.5-0.671,1.5-1.5v-5.13C22.026,24.647,25.5,20.727,25.5,16z"/>
	</g>
	<g>
		<path fill="#FFFFFF" d="M16,8.5c-4.142,0-7.5,3.358-7.5,7.5s3.358,7.5,7.5,7.5V8.5z"/>
		<path fill="#F7F7F7" d="M23.5,16c0-4.142-3.358-7.5-7.5-7.5v15C20.142,23.5,23.5,20.142,23.5,16z"/>
		<path fill="#373F3F" d="M16,13.5c-1.381,0-2.5,1.119-2.5,2.5c0,1.381,1.119,2.5,2.5,2.5V13.5z"/>
		<path fill="#2B3332" d="M18.5,16c0-1.381-1.119-2.5-2.5-2.5v5C17.381,18.5,18.5,17.381,18.5,16z"/>
		<circle fill="#FFFFFF" cx="15.5" cy="15.5" r="1"/>
		<path fill="#3980A8" d="M14.5,1.5v5.13c-4.526,0.723-8,4.643-8,9.37s3.474,8.647,8,9.37v5.13c0,0.829,0.672,1.5,1.5,1.5v-6.5V23
			v-0.5c-3.584,0-6.5-2.916-6.5-6.5s2.916-6.5,6.5-6.5V9V6.5V0C15.172,0,14.5,0.671,14.5,1.5z"/>
		<path fill="#377AA0" d="M25.5,16c0-4.727-3.474-8.647-8-9.37V1.5C17.5,0.671,16.828,0,16,0v6.5V9v0.5c3.584,0,6.5,2.916,6.5,6.5
			s-2.916,6.5-6.5,6.5V23v2.5V32c0.828,0,1.5-0.671,1.5-1.5v-5.13C22.026,24.647,25.5,20.727,25.5,16z"/>
	</g>
</g>
</svg>
